icons/svg/headphones.svg

﻿<?xml version="1.0" encoding="utf-8"?>
<!DOCTYPE svg PUBLIC "-//W3C//DTD SVG 1.1//EN" "http://www.w3.org/Graphics/SVG/1.1/DTD/svg11.dtd">
<svg xmlns="http://www.w3.org/2000/svg" xmlns:xlink="http://www.w3.org/1999/xlink" version="1.1" baseProfile="full" width="24" height="24" viewBox="0 0 24.00 24.00" enable-background="new 0 0 24.00 24.00" xml:space="preserve">
	<path fill="#000000" fill-opacity="1" stroke-width="0.2" stroke-linejoin="round" d="M 11.9994,0.998068C 7.02841,0.998068 2.9994,5.02706 2.9994,9.99807L 2.9994,16.9981C 2.9994,18.6551 4.3424,19.9981 5.9994,19.9981L 8.9994,19.9981L 8.9994,11.9981L 4.9994,11.9981L 4.9994,9.99807C 4.9994,6.13207 8.1334,2.99807 11.9994,2.99807C 15.8654,2.99807 18.9994,6.13207 18.9994,9.99807L 18.9994,11.9981L 14.9994,11.9981L 14.9994,19.9981L 17.9994,19.9981C 19.6564,19.9981 20.9994,18.6551 20.9994,16.9981L 20.9994,9.99807C 20.9994,5.02706 16.9704,0.998068 11.9994,0.998068 Z "/>
</svg>

<svg xmlns="http://www.w3.org/2000/svg" version="1.1" baseProfile="full" width="24" height="24" viewBox="0 0 24.00 24.00" xml:space="preserve"><path fill="#000" fill-opacity="1" stroke-width=".2" stroke-linejoin="round" d="M12 .998c-4.972 0-9 4.03-9 9v7c0 1.657 1.342 3 3 3h3v-8H5v-2c0-3.866 3.133-7 7-7 3.865 0 7 3.134 7 7v2h-4v8h3c1.656 0 3-1.343 3-3v-7c0-4.97-4.03-9-9-9z"/></svg>
